X: 15
T: No_23_Circle_Dance_Song_(a).krn
N: Derived from No_23_Circle_Dance_Song_(a).krn
%%abc-version 2.0
%%abcx-abcm2ps-target-version 5.9.1 (29 Sep 2008)
%%abc-creator hum2abc beta
%%abcx-conversion-date 2019/03/15 08:35:00
%%humdrum-veritas 184597656
%%humdrum-veritas-data 190089853
%%linebreak <none>
%%barnumbers 0
L: 1/8
M: 2/4
K: E clef=bass
[K:clef=bass][M:2/4]z2z3/ E,/ | 
E,2F,/F,3/ | 
G,2F, z/ E,/ | 
E,2F,/F,3/ | 
F,2F,E, ]|:  
G,G, G,E, | 
F,F, E, z/ C,/ | 
C,2F,F, | 
F,2F,/E,/ z/ C,/ | 
C,2F,F, | 
F,2F,E, :|]  
G,G, G,E, | 
F,F, E, z |]  



